X: 6
T: Tripping Up The Stairs
R: jig
M: 6/8
L: 1/8
K: Dmaj
A2G|:FAd GBd|FAd fed|cBc ABc|dfe dAG|
|FAd GBd|FAd fed|cBc ABc|[1dfe d2A:|[2dfed3|]
|:dBB fBB|dBd fed|cAA eAA|efe ecA|
dBB fBB|dBd fed|cBc ABc|[1dfe d3]:|[2dfe d2A|]


Tune 111	Setting 24058

